Icons/com_android_mms.svg

<svg viewBox="0 0 48 48" xmlns:xlink="http://www.w3.org/1999/xlink">
 <defs>
  <linearGradient id="0">
   <stop stop-opacity="0"/>
   <stop offset="1"/>
  </linearGradient>
  <linearGradient xlink:href="#0" id="1" gradientUnits="userSpaceOnUse" gradientTransform="translate(4e-7,-48)" y1="47" x2="0" y2="1"/>
  <clipPath id="2">
   <g transform="translate(0,-1004.3622)">
    <rect rx="4" y="1005.36" x="1" height="46" width="46" fill="#1890d0"/>
   </g>
  </clipPath>
  <clipPath id="3">
   <g transform="translate(0,-1004.3622)">
    <rect rx="4" y="1005.36" x="1" height="46" width="46" fill="#1890d0"/>
   </g>
  </clipPath>
 </defs>
 <g>
  <g transform="translate(0,-1004.3622)">
   <path d="m 5,1006.3622 c -2.216,0 -4,1.784 -4,4 l 0,37.25 c 0,2.216 1.784,4 4,4 l 38,0 c 2.216,0 4,-1.784 4,-4 l 0,-37.25 c 0,-2.216 -1.784,-4 -4,-4 l -38,0 z m -4,41.5 0,0.5 c 0,2.216 1.784,4 4,4 l 38,0 c 2.216,0 4,-1.784 4,-4 l 0,-0.5 c 0,2.216 -1.784,4 -4,4 l -38,0 c -2.216,0 -4,-1.784 -4,-4 z" opacity="0.02"/>
   <path d="m 1,1047.6122 0,0.25 c 0,2.216 1.784,4 4,4 l 38,0 c 2.216,0 4,-1.784 4,-4 l 0,-0.25 c 0,2.216 -1.784,4 -4,4 l -38,0 c -2.216,0 -4,-1.784 -4,-4 z" opacity="0.05"/>
   <rect width="46" height="46" x="1" y="1005.61" rx="4" opacity="0.1"/>
  </g>
 </g>
 <g>
  <g transform="translate(0,-1004.3622)">
   <rect rx="4" y="1005.36" x="1" height="46" width="46" fill="#6ac9ee"/>
  </g>
 </g>
 <g>
  <rect transform="scale(1,-1)" width="46" height="46" x="1" y="-46.998" rx="4" opacity="0.1" fill="url(#1)"/>
 </g>
 <g>
  <g clip-path="url(#2)">
   <g opacity="0.1">
    <g>
     <path d="M 24 12 C 17.371094 12 12 17.1875 12 23.585938 C 12 27.445312 13.964844 30.84375 16.96875 32.949219 C 16.859375 33.390625 16.71875 33.859375 16.5 34.34375 C 15.75 36 15 36 15 36 C 15 36 17.25 36 18.75 35.171875 C 19.066406 35 19.34375 34.710938 19.59375 34.371094 C 20.960938 34.894531 22.441406 35.171875 24 35.171875 C 30.628906 35.171875 36 29.984375 36 23.585938 C 36 17.1875 30.628906 12 24 12 Z M 24 12 "/>
     <path d="M 19 23.003906 C 19 22.675781 19.074219 22.425781 19.226562 22.257812 C 19.382812 22.085938 19.601562 22 19.886719 22 C 20.179688 22 20.40625 22.085938 20.566406 22.257812 C 20.730469 22.425781 20.8125 22.675781 20.8125 23.003906 C 20.8125 23.324219 20.730469 23.570312 20.566406 23.742188 C 20.398438 23.914062 20.171875 24 19.886719 24 C 19.632812 24 19.417969 23.921875 19.25 23.769531 C 19.082031 23.613281 19 23.359375 19 23.003906 "/>
     <path d="M 23.09375 23.003906 C 23.09375 22.675781 23.167969 22.425781 23.320312 22.257812 C 23.472656 22.085938 23.695312 22 23.980469 22 C 24.273438 22 24.496094 22.085938 24.660156 22.257812 C 24.824219 22.425781 24.90625 22.675781 24.90625 23.003906 C 24.90625 23.324219 24.824219 23.570312 24.660156 23.742188 C 24.492188 23.914062 24.265625 24 23.980469 24 C 23.726562 24 23.511719 23.921875 23.339844 23.769531 C 23.175781 23.613281 23.09375 23.359375 23.09375 23.003906 "/>
     <path d="M 27.1875 23.003906 C 27.1875 22.675781 27.261719 22.425781 27.414062 22.257812 C 27.566406 22.085938 27.789062 22 28.074219 22 C 28.367188 22 28.589844 22.085938 28.75 22.257812 C 28.917969 22.425781 29 22.675781 29 23.003906 C 29 23.324219 28.917969 23.570312 28.75 23.742188 C 28.585938 23.914062 28.359375 24 28.074219 24 C 27.820312 24 27.605469 23.921875 27.433594 23.769531 C 27.269531 23.613281 27.1875 23.359375 27.1875 23.003906 "/>
    </g>
   </g>
  </g>
 </g>
 <g>
  <g clip-path="url(#3)">
   <g transform="translate(0,-1)">
    <g>
     <path d="M 24 12 C 17.371094 12 12 17.1875 12 23.585938 C 12 27.445312 13.964844 30.84375 16.96875 32.949219 C 16.859375 33.390625 16.71875 33.859375 16.5 34.34375 C 15.75 36 15 36 15 36 C 15 36 17.25 36 18.75 35.171875 C 19.066406 35 19.34375 34.710938 19.59375 34.371094 C 20.960938 34.894531 22.441406 35.171875 24 35.171875 C 30.628906 35.171875 36 29.984375 36 23.585938 C 36 17.1875 30.628906 12 24 12 Z M 24 12 " fill="#f9f9f9"/>
     <path d="M 19 23.003906 C 19 22.675781 19.074219 22.425781 19.226562 22.257812 C 19.382812 22.085938 19.601562 22 19.886719 22 C 20.179688 22 20.40625 22.085938 20.566406 22.257812 C 20.730469 22.425781 20.8125 22.675781 20.8125 23.003906 C 20.8125 23.324219 20.730469 23.570312 20.566406 23.742188 C 20.398438 23.914062 20.171875 24 19.886719 24 C 19.632812 24 19.417969 23.921875 19.25 23.769531 C 19.082031 23.613281 19 23.359375 19 23.003906 " fill="#868686"/>
     <path d="M 23.09375 23.003906 C 23.09375 22.675781 23.167969 22.425781 23.320312 22.257812 C 23.472656 22.085938 23.695312 22 23.980469 22 C 24.273438 22 24.496094 22.085938 24.660156 22.257812 C 24.824219 22.425781 24.90625 22.675781 24.90625 23.003906 C 24.90625 23.324219 24.824219 23.570312 24.660156 23.742188 C 24.492188 23.914062 24.265625 24 23.980469 24 C 23.726562 24 23.511719 23.921875 23.339844 23.769531 C 23.175781 23.613281 23.09375 23.359375 23.09375 23.003906 " fill="#868686"/>
     <path d="M 27.1875 23.003906 C 27.1875 22.675781 27.261719 22.425781 27.414062 22.257812 C 27.566406 22.085938 27.789062 22 28.074219 22 C 28.367188 22 28.589844 22.085938 28.75 22.257812 C 28.917969 22.425781 29 22.675781 29 23.003906 C 29 23.324219 28.917969 23.570312 28.75 23.742188 C 28.585938 23.914062 28.359375 24 28.074219 24 C 27.820312 24 27.605469 23.921875 27.433594 23.769531 C 27.269531 23.613281 27.1875 23.359375 27.1875 23.003906 " fill="#868686"/>
    </g>
   </g>
  </g>
 </g>
 <g>
  <g transform="translate(0,-1004.3622)">
   <path d="m 1,1043.3622 0,4 c 0,2.216 1.784,4 4,4 l 38,0 c 2.216,0 4,-1.784 4,-4 l 0,-4 c 0,2.216 -1.784,4 -4,4 l -38,0 c -2.216,0 -4,-1.784 -4,-4 z" opacity="0.1"/>
  </g>
 </g>
</svg>

<svg viewBox="0 0 48 48"><defs><linearGradient id="linearGradient3764" x1="1" x2="47" gradientUnits="userSpaceOnUse" gradientTransform="translate(-48.000001,0.00221467)"><stop stop-color="#58c4ec" stop-opacity="1"/><stop offset="1" stop-color="#6ac9ee" stop-opacity="1"/></linearGradient><clipPath id="clipPath-319542556"><g transform="translate(0,-1004.3622)"><rect rx="4" y="1005.36" x="1" height="46" width="46" fill="#1890d0"/></g></clipPath><clipPath id="clipPath-332980795"><g transform="translate(0,-1004.3622)"><rect rx="4" y="1005.36" x="1" height="46" width="46" fill="#1890d0"/></g></clipPath></defs><g><path d="m 1 43 l 0 0.25 c 0 2.216 1.784 4 4 4 l 38 0 c 2.216 0 4 -1.784 4 -4 l 0 -0.25 c 0 2.216 -1.784 4 -4 4 l -38 0 c -2.216 0 -4 -1.784 -4 -4 z m 0 0.5 l 0 0.5 c 0 2.216 1.784 4 4 4 l 38 0 c 2.216 0 4 -1.784 4 -4 l 0 -0.5 c 0 2.216 -1.784 4 -4 4 l -38 0 c -2.216 0 -4 -1.784 -4 -4 z" opacity="0.02"/><path d="m 1 43.25 l 0 0.25 c 0 2.216 1.784 4 4 4 l 38 0 c 2.216 0 4 -1.784 4 -4 l 0 -0.25 c 0 2.216 -1.784 4 -4 4 l -38 0 c -2.216 0 -4 -1.784 -4 -4 z" opacity="0.05"/><path d="m 1 43 l 0 0.25 c 0 2.216 1.784 4 4 4 l 38 0 c 2.216 0 4 -1.784 4 -4 l 0 -0.25 c 0 2.216 -1.784 4 -4 4 l -38 0 c -2.216 0 -4 -1.784 -4 -4 z" opacity="0.1"/></g><g><rect width="46" height="46" x="-47" y="1" rx="4" transform="matrix(0,-1,1,0,0,0)" fill="url(#linearGradient3764)" fill-opacity="1"/></g><g><g clip-path="url(#clipPath-319542556)"><g opacity="0.1"><!-- color: #6ac9ee --><g><path d="m 24 12 c -6.629 0 -12 5.188 -12 11.586 c 0 3.859 1.965 7.258 4.969 9.363 c -0.109 0.441 -0.25 0.91 -0.469 1.395 c -0.75 1.656 -1.5 1.656 -1.5 1.656 c 0 0 2.25 0 3.75 -0.828 c 0.316 -0.172 0.594 -0.461 0.844 -0.801 c 1.367 0.523 2.848 0.801 4.406 0.801 c 6.629 0 12 -5.188 12 -11.586 c 0 -6.398 -5.371 -11.586 -12 -11.586 m 0 0" fill="#000"/><path d="m 19 23 c 0 -0.328 0.074 -0.578 0.227 -0.746 c 0.156 -0.172 0.375 -0.258 0.66 -0.258 c 0.293 0 0.52 0.086 0.68 0.258 c 0.164 0.168 0.246 0.418 0.246 0.746 c 0 0.32 -0.082 0.566 -0.246 0.738 c -0.168 0.172 -0.395 0.258 -0.68 0.258 c -0.254 0 -0.469 -0.078 -0.637 -0.23 c -0.168 -0.156 -0.25 -0.41 -0.25 -0.766" fill="#000"/><path d="m 23.09 23 c 0 -0.328 0.074 -0.578 0.227 -0.746 c 0.152 -0.172 0.375 -0.258 0.66 -0.258 c 0.293 0 0.516 0.086 0.68 0.258 c 0.164 0.168 0.246 0.418 0.246 0.746 c 0 0.32 -0.082 0.566 -0.246 0.738 c -0.168 0.172 -0.395 0.258 -0.68 0.258 c -0.254 0 -0.469 -0.078 -0.641 -0.23 c -0.164 -0.156 -0.246 -0.41 -0.246 -0.766" fill="#000"/><path d="m 27.19 23 c 0 -0.328 0.074 -0.578 0.227 -0.746 c 0.152 -0.172 0.375 -0.258 0.66 -0.258 c 0.293 0 0.516 0.086 0.676 0.258 c 0.168 0.168 0.25 0.418 0.25 0.746 c 0 0.32 -0.082 0.566 -0.25 0.738 c -0.164 0.172 -0.391 0.258 -0.676 0.258 c -0.254 0 -0.469 -0.078 -0.641 -0.23 c -0.164 -0.156 -0.246 -0.41 -0.246 -0.766" fill="#000"/></g></g></g></g><g><g clip-path="url(#clipPath-332980795)"><g transform="translate(0,-1)"><!-- color: #6ac9ee --><g><path d="m 24 12 c -6.629 0 -12 5.188 -12 11.586 c 0 3.859 1.965 7.258 4.969 9.363 c -0.109 0.441 -0.25 0.91 -0.469 1.395 c -0.75 1.656 -1.5 1.656 -1.5 1.656 c 0 0 2.25 0 3.75 -0.828 c 0.316 -0.172 0.594 -0.461 0.844 -0.801 c 1.367 0.523 2.848 0.801 4.406 0.801 c 6.629 0 12 -5.188 12 -11.586 c 0 -6.398 -5.371 -11.586 -12 -11.586 m 0 0" fill="#f9f9f9"/><path d="m 19 23 c 0 -0.328 0.074 -0.578 0.227 -0.746 c 0.156 -0.172 0.375 -0.258 0.66 -0.258 c 0.293 0 0.52 0.086 0.68 0.258 c 0.164 0.168 0.246 0.418 0.246 0.746 c 0 0.32 -0.082 0.566 -0.246 0.738 c -0.168 0.172 -0.395 0.258 -0.68 0.258 c -0.254 0 -0.469 -0.078 -0.637 -0.23 c -0.168 -0.156 -0.25 -0.41 -0.25 -0.766" fill="#868686"/><path d="m 23.09 23 c 0 -0.328 0.074 -0.578 0.227 -0.746 c 0.152 -0.172 0.375 -0.258 0.66 -0.258 c 0.293 0 0.516 0.086 0.68 0.258 c 0.164 0.168 0.246 0.418 0.246 0.746 c 0 0.32 -0.082 0.566 -0.246 0.738 c -0.168 0.172 -0.395 0.258 -0.68 0.258 c -0.254 0 -0.469 -0.078 -0.641 -0.23 c -0.164 -0.156 -0.246 -0.41 -0.246 -0.766" fill="#868686"/><path d="m 27.19 23 c 0 -0.328 0.074 -0.578 0.227 -0.746 c 0.152 -0.172 0.375 -0.258 0.66 -0.258 c 0.293 0 0.516 0.086 0.676 0.258 c 0.168 0.168 0.25 0.418 0.25 0.746 c 0 0.32 -0.082 0.566 -0.25 0.738 c -0.164 0.172 -0.391 0.258 -0.676 0.258 c -0.254 0 -0.469 -0.078 -0.641 -0.23 c -0.164 -0.156 -0.246 -0.41 -0.246 -0.766" fill="#868686"/></g></g></g></g><g><g transform="translate(0,-1004.3622)"><path d="m 1 1043.36 0 4 c 0 2.216 1.784 4 4 4 l 38 0 c 2.216 0 4 -1.784 4 -4 l 0 -4 c 0 2.216 -1.784 4 -4 4 l -38 0 c -2.216 0 -4 -1.784 -4 -4 z" opacity="0.1"/></g></g></svg>
